X: 26209
T: Me'zo Vont Da Besketa Dans Plin
R: barndance
M: 4/4
K: Eminor
E|BB BA/G/ F2 FE|Bd/B/ AG/A/ F2 FE|BB BA/G/ F2 FE|BB cB F2 FE|
M:5/4
B>c BA GF E>F GB|M:3/4
E>D EF GE|D>E F3F|
M:4/4
BB BA/B/ A>G FG|ED EF/A/ F3F|BB BG AA FD|M:2/4
E3z|

